static/images/veritas.svg

<svg xmlns="http://www.w3.org/2000/svg" preserveAspectRatio="xMinYMin meet" viewBox="0 0 665 560"><path fill="#348899" d="M575.25 315L566 329.5l14 9 8.75-14.25-13.5-9.25zm-7.75 26l-4.75 8 7.75 4.75 5-7.75-8-5zm30.25 5l-10.25 17.25 16.75 9.75 10.25-16.5-16.75-10.5zm-37 24.25l9.75-16.75 17.25 10-10.25 17-16.75-10.25zm27.75 80l6-8.5-8.75-6.25-6 9 8.75 5.75zm11.25-11l15.5-25.75-17.5-10.75-9.75 17.5 36.75 22 6.75-11-11-7-11.75 20.5-9-5.5zm11.75-39.75l10.5-17-17.75-9.75-15.75 28.5-11.5-7.5 6.75-11 27.75 16.75zm3.5 55l-6.5 11L619 472l6.5-11.25-10.5-6.25zm10.5 15.5l-5.75 9.75 8.5 5.25 5.5-9.5-8.25-5.5zm-31 46l14.5-25-7.25-5-4.5 8.25 24.5 14.75-10.25 17.25-17-10.25zm-23 12l-11.25-7.5 7-10.5 11.25 6.75-7 11.25zm19.5-43.75l10.5-17-17-10.25-10 17 16.5 10.25zM477.75 243.5c47.46 63.5 75.75 118.87 89 162.75-7.87-4-12.13-7-12.13-7l-8.5 14.87 15.38 9.13s5.15-10.63 6.38-12.13c2.53 9.14 4.29 18.11 5.5 26.26l-5.5 9.74s-16.51-9.88-16.26-9.5c.02.02 4.63-8.37 4.63-8.37l-8.87-5.13-5 9.5s7.87 4.51 7.87 4.5l-10.63 16.38 18.13 11 10-17.38 7.13 2.88c.39 7.8.71 16.26-.22 22.91l-11.41-7.16-7.25 11.87 12.88 7.5 5.11-9.82c-2.9 17.04-9.96 30.28-20.96 38.85l9.59-16.27-17.62-11L534 506l17.93 10.17c-41.81 30.42-133.73.06-239.43-109.67C496 571 618 446 477.75 243.5z"/><text x="24" y="350" font-family="Verdana" font-size="130">VE</text><text x="274" y="350" font-family="Verdana" font-size="130">ITAS</text><path fill="#346D99" d="M249.86 303.75c7.66 19.78 20.54 48.1 42.14 86.5-22.1-28.03-40.79-59.11-53.32-81.81l11.18-4.69zm-15.91-68.74s1.17 13.37 1.55 22.61l-20.06 2.6c-3.31-8.02-6.74-16.31-6.74-16.31C149.44 79.84 278.12 36.45 471.5 239c-132.17-129.23-244.69-115.45-237.55-3.99zm-51.2-83.26s-5-65.5 59.5-63.5c0 0-71.75-22.75-59.5 63.5zm-25.25 17.5S138 44.75 255.25 64c0 0-129.5-49.25-97.75 105.25zm-29-6.5s-27-172.75 143.75-125c0 0-184-83.75-143.75 125z"/><text x="195" y="350" font-family="Verdana" font-size="130" fill="#346D99">P</text><path fill="#979C9C" d="M350.5 419.5c52.25 42.75 209.25 105.5 163-79.75 28.25 122.75-41.75 156.25-163 79.75zm-64.25-65c-34.5-66-92.5-261.75 102-167-185.75-99.5-153.5 82-102 167z"/></svg>

<svg xmlns="http://www.w3.org/2000/svg" preserveAspectRatio="xMinYMin meet" viewBox="0 0 665 560">
<path id="Light Blue Sq" fill="rgb(52,136,153)" d="M575.25 315C575.25 315 566 329.5 566 329.5 566 329.5 580 338.5 580 338.5 580 338.5 588.75 324.25 588.75 324.25 588.75 324.25 575.25 315 575.25 315ZM567.5 341C567.5 341 562.75 349 562.75 349 562.75 349 570.5 353.75 570.5 353.75 570.5 353.75 575.5 346 575.5 346 575.5 346 567.5 341 567.5 341ZM597.75 346C597.75 346 587.5 363.25 587.5 363.25 587.5 363.25 604.25 373 604.25 373 604.25 373 614.5 356.5 614.5 356.5 614.5 356.5 597.75 346 597.75 346ZM560.75 370.25C560.75 370.25 570.5 353.5 570.5 353.5 570.5 353.5 587.75 363.5 587.75 363.5 587.75 363.5 577.5 380.5 577.5 380.5 577.5 380.5 560.75 370.25 560.75 370.25ZM588.5 450.25C588.5 450.25 594.5 441.75 594.5 441.75 594.5 441.75 585.75 435.5 585.75 435.5 585.75 435.5 579.75 444.5 579.75 444.5 579.75 444.5 588.5 450.25 588.5 450.25ZM599.75 439.25C599.75 439.25 615.25 413.5 615.25 413.5 615.25 413.5 597.75 402.75 597.75 402.75 597.75 402.75 588 420.25 588 420.25 588 420.25 624.75 442.25 624.75 442.25 624.75 442.25 631.5 431.25 631.5 431.25 631.5 431.25 620.5 424.25 620.5 424.25 620.5 424.25 608.75 444.75 608.75 444.75 608.75 444.75 599.75 439.25 599.75 439.25ZM611.5 399.5C611.5 399.5 622 382.5 622 382.5 622 382.5 604.25 372.75 604.25 372.75 604.25 372.75 588.5 401.25 588.5 401.25 588.5 401.25 577 393.75 577 393.75 577 393.75 583.75 382.75 583.75 382.75 583.75 382.75 611.5 399.5 611.5 399.5ZM615 454.5C615 454.5 608.5 465.5 608.5 465.5 608.5 465.5 619 472 619 472 619 472 625.5 460.75 625.5 460.75 625.5 460.75 615 454.5 615 454.5ZM625.5 470C625.5 470 619.75 479.75 619.75 479.75 619.75 479.75 628.25 485 628.25 485 628.25 485 633.75 475.5 633.75 475.5 633.75 475.5 625.5 470 625.5 470ZM594.5 516C594.5 516 609 491 609 491 609 491 601.75 486 601.75 486 601.75 486 597.25 494.25 597.25 494.25 597.25 494.25 621.75 509 621.75 509 621.75 509 611.5 526.25 611.5 526.25 611.5 526.25 594.5 516 594.5 516ZM571.5 528C571.5 528 560.25 520.5 560.25 520.5 560.25 520.5 567.25 510 567.25 510 567.25 510 578.5 516.75 578.5 516.75 578.5 516.75 571.5 528 571.5 528ZM591 484.25C591 484.25 601.5 467.25 601.5 467.25 601.5 467.25 584.5 457 584.5 457 584.5 457 574.5 474 574.5 474 574.5 474 591 484.25 591 484.25ZM477.75 243.5C525.21 307 553.5 362.37 566.75 406.25 558.88 402.25 554.62 399.25 554.62 399.25 554.62 399.25 546.12 414.12 546.12 414.12 546.12 414.12 561.5 423.25 561.5 423.25 561.5 423.25 566.65 412.62 567.88 411.12 570.41 420.26 572.17 429.23 573.38 437.38 573.38 437.38 567.88 447.12 567.88 447.12 567.88 447.12 551.37 437.24 551.62 437.62 551.64 437.64 556.25 429.25 556.25 429.25 556.25 429.25 547.38 424.12 547.38 424.12 547.38 424.12 542.38 433.62 542.38 433.62 542.38 433.62 550.25 438.13 550.25 438.12 550.25 438.12 539.62 454.5 539.62 454.5 539.62 454.5 557.75 465.5 557.75 465.5 557.75 465.5 567.75 448.12 567.75 448.12 567.75 448.12 574.88 451 574.88 451 575.27 458.8 575.59 467.26 574.66 473.91 574.66 473.91 563.25 466.75 563.25 466.75 563.25 466.75 556 478.62 556 478.62 556 478.62 568.88 486.12 568.88 486.12 568.88 486.12 573.99 476.3 573.99 476.3 571.09 493.34 564.03 506.58 553.03 515.15 553.03 515.15 562.62 498.88 562.62 498.88 562.62 498.88 545 487.88 545 487.88 545 487.88 534 506 534 506 534 506 551.93 516.17 551.93 516.17 510.12 546.59 418.2 516.23 312.5 406.5 496 571 618 446 477.75 243.5Z"/>
<text x="24" y="350" font-family="Verdana" font-size="130" fill="black">VE</text>
<text x="274" y="350" font-family="Verdana" font-size="130" fill="black">ITAS</text>
<path id="Deep Blue" fill="rgb(52,109,153)" d="M249.86 303.75C257.52 323.53 270.4 351.85 292 390.25 269.9 362.22 251.21 331.14 238.68 308.44 238.68 308.44 249.86 303.75 249.86 303.75ZM233.95 235.01C233.95 235.01 235.12 248.38 235.5 257.62 235.5 257.62 215.44 260.22 215.44 260.22 212.13 252.2 208.7 243.91 208.7 243.91 149.44 79.84 278.12 36.45 471.5 239 339.33 109.77 226.81 123.55 233.95 235.01ZM182.75 151.75C182.75 151.75 177.75 86.25 242.25 88.25 242.25 88.25 170.5 65.5 182.75 151.75ZM157.5 169.25C157.5 169.25 138 44.75 255.25 64 255.25 64 125.75 14.75 157.5 169.25ZM128.5 162.75C128.5 162.75 101.5-10 272.25 37.75 272.25 37.75 88.25-46 128.5 162.75Z"/>
<text x="195" y="350" font-family="Verdana" font-size="130" fill="rgb(52,109,153)">P</text>
<path id="Gray" fill="rgb(151,156,156)" d="M350.5 419.5C402.75 462.25 559.75 525 513.5 339.75 541.75 462.5 471.75 496 350.5 419.5ZM286.25 354.5C251.75 288.5 193.75 92.75 388.25 187.5 202.5 88 234.75 269.5 286.25 354.5Z"/>
</svg>
